X:1
T:Sfogava con le stelle
T:Sfogava con le stelle
T:Giovanni Ghizzolo
C:Giovanni Ghizzolo
%%score 1 { 2 | 3 }
L:1/8
Q:1/4=120
M:4/4
K:F
V:1 treble nm="Soprano" snm="S"
V:2 treble nm="MusicXML Part"
V:3 bass 
V:1
"^Source: Madrigali et Arie---Libro primo---Venetia---A.Raverij--1609\nEditor: André Vierendeels (06/05/07)\nContinuo: André Vierendeels." z2 d2 d4- | %1
w: Sfo- ga-|
 dAAB A4 | A2 Bc d2 cB | c4 B4 | z ABc de f2- | fAAB A4 | G8 :: z2 dd _e4- | e2 cc d4 | d4 BABc | %10
w: * va con le stel-|le un in- fer- mo d'A-|mo- re|sot- to not- tur- no ciel|_ il suo do- lo-|re.|E di- cea|_ fis- so'in lo-|ro o _ _ _|
 d/c/d/c/ d/c/d/e/ f4- | f2 e2 d2 cB | c4 cdBA | B6 c2 | A4 A3 A | A2 B2 c2 d2 | _e8 | d4 f4- | %18
w: _ _ _ _ _ _ _ _ _|* i- ma- gi- ni|bel- le dell' i- dol|mio ch'a-|do- ro si|co- me'a me mos-|tra-|te men-|
 f2 _ed cB c2- | ccBc d4- | d2 BG A4 | G8 | z ABc d4- | d2 c2 c4 | B4 c4- | c2 BA GF G2- | %26
w: * tre co- si plen- de-|* te la sua ra-|* ra bel- ta-|te|co- si mo- stra-|* te a|lei men-|* tre co- tan- to'ar- di-|
 GGAB c4- | c2 G2 A4 | G4 z2 GG | G3 G GA B2- | BBcc d4 | d2 ^F2 G4- | G4 G2 A2 | ^F4 z AAA | %34
w: * te'i vi- ni'ar- do-|* ri mie-|i la fa|res- te col vos- tr'au-|* re- o sem- bian-|te pie- to-|* * sa|si co- me me-|
 B2 B2 A4 | G8 |] %36
w: fa- te'a- man-|te.|
V:2
 [DGB]8 | [FA]8 | [FA]8 | [FAc]4 [DFB]4 | [FAc]8 | A4 G2 ^F2 | [DGB]8 :: [DB]4 [GB]4 | %8
 [Ac]4 [FB]4 | [FB]8 | [DB]8 | [GB]8 | [FAc]8 | [GB]6 [Gc]2 | [FA]8 | [FA]2 [DB]2 [FA]2 [FB]2 | %16
 [Gc]8 | [FB]4 A2 G2 | [Ac]8 | [FA]8 | [DG]4 [D^FA]4 | [DG]8 | [FA]8 | G4 A4 | [Fd]4 [FAc]4 | %25
 [EA]2 G2 G4 | [EGc]4 [Ec]4 | G4 ^F4 | [DG]4 [DB]4 | [CG]8 | F2 [FA]2 F4 | G2 A2 E2 D2 | %32
 [EGc]4 E4 | [D^FA]8 | [FB]2 [EG]2 [DG]2 [^Fd]2 | [DG=B]8 |] %36
V:3
 G,8 | D,8 | D,8 | F,4 B,,4 | F,4 F,4 | D,8 | G,,8 :: G,4 _E,4 | F,4 B,,4 | B,,8 | B,6 A,2 | %11
 G,4 G,4 | F,8 | z G,_E,D, E,3 D, | D,6 D,2 | D,2 G,2 F,2 D,2 | C,8 | B,,2 C,2 D,2"^b" E,2 | F,8 | %19
 F,6 E,F, | G,2 G,,2 D,4 | G,,4 z G,F,E, | D,4 z D,E,F, | G,2 _E,2 F,4 | B,,4 F,,2 G,,2 | %25
 A,,2 B,,2 C,4 | C,4 z A,,B,,C, | D,2 _E,2 D,4 | G,,4 G,4 | _E,8 | D,2 F,2 B,,4 | %31
 B,,2 D,2 C,2 =B,,2 | %32
"^Notes: original keys: Ut 1st, Fa 4rth\n            editorial accidentals above the staff" C,4 A,,4 | %33
 D,8- | D,2 ^C,2 D,4 | G,,8 |] %36

